assets/assets/svgs/trkar.svg

<?xml version="1.0" encoding="utf-8"?>
<svg viewBox="134.8058 124.666 200 100" width="200" height="100" xmlns="http://www.w3.org/2000/svg">
  <defs>
    <clipPath id="clip0_349_261">
      <rect width="118" height="31" fill="white" transform="translate(134 1)"/>
    </clipPath>
  </defs>
  <g clip-path="url(#clip0_349_261)" transform="matrix(1.694915056228638, 0, 0, 3.2258059978485107, -92.31282181013853, 121.4402407622373)">
    <path d="M146.387 10.0531L139.588 32H147.504L154.303 10.0531H146.387Z" fill="#444444"/>
    <path d="M191.277 19.7463L196.679 32H189.228L184.665 22.3068L181.591 32H173.675L180.38 10.4189H188.297L186.341 16.8201L194.164 10.4189H202.826L191.277 19.7463Z" fill="#444444"/>
    <path d="M226.947 12.2478C226.78 11.7593 226.492 11.3193 226.109 10.9676C225.927 10.7873 225.709 10.6456 225.468 10.5513C225.228 10.4569 224.971 10.4119 224.712 10.4189H206.178L204.502 15.7227H219.124L218.286 18.5575H207.11C206.522 18.5804 205.948 18.7369 205.433 19.0148C204.831 19.3833 204.269 19.8123 203.757 20.295C203.213 20.8095 202.743 21.3939 202.36 22.0324C201.976 22.6033 201.663 23.2173 201.429 23.8614L200.59 26.6962C200.4 27.2876 200.306 27.9048 200.311 28.5251C200.305 29.1154 200.4 29.7026 200.59 30.2625C200.757 30.751 201.045 31.191 201.429 31.5428C201.616 31.7099 201.838 31.8368 202.078 31.9155C202.319 31.9942 202.573 32.023 202.826 32H221.918L226.947 15.7227C227.138 15.1313 227.232 14.5141 227.227 13.8938C227.225 13.3339 227.13 12.778 226.947 12.2478ZM215.771 26.6962H208.6L209.438 23.8614H216.609L215.771 26.6962Z" fill="#444444"/>
    <path d="M176.562 10.4189L174.886 15.7227H167.062L162.033 32H154.117L159.146 15.7227C159.798 12.9793 162.033 10.6932 164.361 10.4189H176.562Z" fill="#444444"/>
    <path d="M248.554 10.4189L246.878 15.7227H239.054L234.025 32H226.109L231.138 15.7227C231.79 12.9793 234.025 10.6932 236.354 10.4189H248.554Z" fill="#444444"/>
    <path d="M252 1L249.951 7.58408H233.932L235.981 1H252Z" fill="#FACF9C"/>
    <path d="M235.981 1L233.932 7.58408H206.271L208.32 1H235.981Z" fill="#F6A647"/>
    <path d="M208.32 1L206.272 7.58408H169.484L171.533 1H208.32Z" fill="#F28400"/>
    <path d="M136.049 1L134 7.58408H166.597L168.552 1H136.049Z" fill="#444444"/>
  </g>
</svg>

<svg xmlns="http://www.w3.org/2000/svg" viewBox="134.806 124.666 200 100" width="200" height="100" xmlns:v="https://vecta.io/nano"><defs><clipPath id="A"><path fill="#fff" transform="translate(134 1)" d="M0 0h118v31H0z"/></clipPath></defs><g clip-path="url(#A)" transform="matrix(1.694915 0 0 3.225806 -92.312822 121.440241)"><g fill="#444"><path d="M146.387 10.053L139.588 32h7.916l6.799-21.947h-7.916zm44.89 9.693L196.679 32h-7.451l-4.563-9.693L181.591 32h-7.916l6.705-21.581h7.917l-1.956 6.401 7.823-6.401h8.662l-11.549 9.327zm35.67-7.498a3.1 3.1 0 0 0-.838-1.28c-.182-.18-.4-.322-.641-.416s-.497-.139-.756-.132h-18.534l-1.676 5.304h14.622l-.838 2.835H207.11c-.588.023-1.162.179-1.677.457a10.18 10.18 0 0 0-1.676 1.28 8.19 8.19 0 0 0-1.397 1.737 8.45 8.45 0 0 0-.931 1.829l-.839 2.835c-.19.591-.284 1.209-.279 1.829a5.24 5.24 0 0 0 .279 1.737 3.09 3.09 0 0 0 .839 1.28 1.83 1.83 0 0 0 .649.373 1.84 1.84 0 0 0 .748.084h19.092l5.029-16.277c.191-.591.285-1.209.28-1.829a5.1 5.1 0 0 0-.28-1.646zm-11.176 14.448H208.6l.838-2.835h7.171l-.838 2.835zm-39.209-16.277l-1.676 5.304h-7.824L162.033 32h-7.916l5.029-16.277c.652-2.743 2.887-5.03 5.215-5.304h12.201zm71.992 0l-1.676 5.304h-7.824L234.025 32h-7.916l5.029-16.277c.652-2.743 2.887-5.03 5.216-5.304h12.2z"/></g><path d="M252 1l-2.049 6.584h-16.019L235.981 1H252z" fill="#facf9c"/><path d="M235.981 1l-2.049 6.584h-27.661L208.32 1h27.661z" fill="#f6a647"/><path d="M208.32 1l-2.048 6.584h-36.788L171.533 1h36.787z" fill="#f28400"/><path d="M136.049 1L134 7.584h32.597L168.552 1h-32.503z" fill="#444"/></g></svg>
